X:1
T:I'll tell thee, Dick, where I have been
M:3/4
L:1/8
R:Air
B:Chappell - Popular Music of the Olden Times, vol. 2 (1859, pp. 43-44)
Z:AK/Fiddler's Companion
K:F
FAF|c3d ec|f3A Bc|d3c BA|G4c2|=B3c dB|c3c GA|
_B3A GF|E3E FD|G3F ED|C4 c2|B3A GA|F3||

